X: 41989
T: Walls Of Liscarrol, The
R: jig
M: 6/8
K: Adorian
age edB|dBA A2B|dBB gBB|def gab|
age edB|dBA A2B|dBB gBB|ABA A2a:|
aea bge|aea bge|dBB gBB|def gab|
[1aea bge|aea bge|dBB gBB|ABA A3:|
[2 age edB|dBA A2B|dBB gBB|ABA A2a||

